icon-svg/aqara-u100.svg

<svg xmlns="http://www.w3.org/2000/svg" viewBox="0 0 24 24"><path fill="#44739e" d="M11.292 13.508a1.21 1.21 0 0 0 0-2.399 1.21 1.21 0 0 0 0 2.399m6.512-11.102q0-.015-.023-.03a.85.85 0 0 0-.551-.328 1 1 0 0 0-.128-.011L16.642 2H7.477a1.435 1.435 0 0 0-1.428 1.429V20.98A1.03 1.03 0 0 0 7.086 22h10.015a.847.847 0 0 0 .85-.844V2.879a.84.84 0 0 0-.147-.473m-3.497 1.885a.07.07 0 0 0-.058-.027h-.073v-.156h.073a.06.06 0 0 0 .047-.023.1.1 0 0 0 .017-.066v-.014a.1.1 0 0 0-.019-.061.06.06 0 0 0-.051-.021.07.07 0 0 0-.057.024.14.14 0 0 0-.032.07h-.166a.27.27 0 0 1 .083-.185.25.25 0 0 1 .177-.067.24.24 0 0 1 .176.059.21.21 0 0 1 .063.164v.026a.2.2 0 0 1-.031.101.2.2 0 0 1-.085.067.14.14 0 0 1 .101.064.22.22 0 0 1 .034.129v.026a.23.23 0 0 1-.067.175.26.26 0 0 1-.185.061.3.3 0 0 1-.138-.028.22.22 0 0 1-.101-.082.25.25 0 0 1-.041-.13h.168a.1.1 0 0 0 .029.062.1.1 0 0 0 .062.022.1.1 0 0 0 .07-.026.1.1 0 0 0 .025-.072v-.016a.12.12 0 0 0-.021-.076m-.111 5.17a.2.2 0 0 1-.157-.068.27.27 0 0 1-.06-.183.27.27 0 0 1 .065-.193.24.24 0 0 1 .187-.069.24.24 0 0 1 .184.069.27.27 0 0 1 .066.201.4.4 0 0 1-.018.113q-.018.06-.042.121l-.154.367h-.171l.158-.361a.2.2 0 0 1-.058.003m.221-2.303a.25.25 0 0 1-.185.068.25.25 0 0 1-.186-.067.26.26 0 0 1-.065-.192.5.5 0 0 1 .016-.117 1 1 0 0 1 .043-.12l.174-.37h.183l-.169.352h.031a.2.2 0 0 1 .165.067.27.27 0 0 1 .059.188.27.27 0 0 1-.066.191m-.589 4.759a.043.043 0 0 1 .041-.045h.039v-.133a.225.225 0 1 1 .447 0v.133h.039a.043.043 0 0 1 .04.045v.504a.04.04 0 0 1-.04.045h-.525a.04.04 0 0 1-.041-.045Zm-2.117-2.468a.2.2 0 0 1 .036.121v.014a.22.22 0 0 1-.034.125.2.2 0 0 1-.095.084.3.3 0 0 1-.143.029.3.3 0 0 1-.143-.029.22.22 0 0 1-.128-.209V9.57a.2.2 0 0 1 .035-.121.2.2 0 0 1 .094-.085.2.2 0 0 1-.081-.072.17.17 0 0 1-.031-.101v-.019a.2.2 0 0 1 .071-.167.3.3 0 0 1 .369 0 .2.2 0 0 1 .07.163v.022a.2.2 0 0 1-.031.101.2.2 0 0 1-.083.071.2.2 0 0 1 .093.087Zm-.308-2.406a.08.08 0 0 0 .063.026.08.08 0 0 0 .066-.028.1.1 0 0 0 .023-.078v-.075a.13.13 0 0 0-.02-.079.07.07 0 0 0-.06-.027.1.1 0 0 0-.058.017.1.1 0 0 0-.035.049h-.151v-.489h.464v.157h-.302v.151a.14.14 0 0 1 .05-.028.2.2 0 0 1 .062-.011.2.2 0 0 1 .157.069.3.3 0 0 1 .055.195v.071a.27.27 0 0 1-.066.195.25.25 0 0 1-.187.068.24.24 0 0 1-.173-.067.28.28 0 0 1-.079-.19h.162a.12.12 0 0 0 .028.074Zm-.202-3.025a.27.27 0 0 1 .078-.189.25.25 0 0 1 .181-.068.27.27 0 0 1 .188.059.2.2 0 0 1 .066.165.4.4 0 0 1-.02.116.4.4 0 0 1-.057.101l-.211.266h.292v.156h-.504v-.138l.295-.387a.2.2 0 0 0 .031-.053.1.1 0 0 0 .011-.051.07.07 0 0 0-.023-.054.1.1 0 0 0-.064-.018.08.08 0 0 0-.064.026.13.13 0 0 0-.031.074h-.168Zm.091 6.832a1.464 1.464 0 0 1 0 2.917 1.464 1.464 0 0 1 0-2.917M8.973 6.41l-.257.569h.156v-.216h.161v.216h.068v.156H9.03v.133h-.158v-.133h-.349v-.147l.264-.576Zm.066 5.424v.39a.24.24 0 0 1-.066.178.31.31 0 0 1-.384 0 .25.25 0 0 1-.064-.178v-.39a.24.24 0 0 1 .065-.179.32.32 0 0 1 .384 0 .24.24 0 0 1 .061.179Zm-.527-7.953.128-.057h.138v.857h-.162v-.668l-.101.04Zm-.001 5.124h.49v.108l-.192.75h-.175l.186-.706h-.149v.129h-.162Zm7.699 12.422H7.183a.63.63 0 0 1-.63-.627v-6.563h9.657Zm1.4-.378a.38.38 0 0 1-.378.378h-.403V2.506h.349a.434.434 0 0 1 .435.434Zm-8.832-9.303a.08.08 0 0 0-.072.034.17.17 0 0 0-.022.095v.302a.17.17 0 0 0 .022.095.08.08 0 0 0 .072.034.08.08 0 0 0 .073-.034.17.17 0 0 0 .022-.095v-.302a.17.17 0 0 0-.022-.095.08.08 0 0 0-.073-.034m2.696-2.291a.12.12 0 0 0-.079.027.1.1 0 0 0-.031.071v.008a.1.1 0 0 0 .031.077.1.1 0 0 0 .079.028.1.1 0 0 0 .081-.029.1.1 0 0 0 .03-.077v-.008a.1.1 0 0 0-.03-.07.12.12 0 0 0-.081-.027m2.8 2.284a.146.146 0 1 0-.289 0v.133h.289Zm-.044-4.876a.08.08 0 0 0-.066.03.12.12 0 0 0-.023.081.1.1 0 0 0 .023.071.1.1 0 0 0 .066.024.1.1 0 0 0 .066-.024.1.1 0 0 0 .023-.072.13.13 0 0 0-.023-.08.08.08 0 0 0-.066-.03m.086 2.343a.1.1 0 0 0-.023-.074.08.08 0 0 0-.065-.026.08.08 0 0 0-.067.027.1.1 0 0 0-.023.074.1.1 0 0 0 .023.078.094.094 0 0 0 .132 0 .12.12 0 0 0 .023-.079m-2.842.092a.1.1 0 0 0 .068-.026.1.1 0 0 0 .025-.071v-.008a.1.1 0 0 0-.025-.065.1.1 0 0 0-.134 0 .1.1 0 0 0-.027.065v.013a.1.1 0 0 0 .027.07.1.1 0 0 0 .066.022"/></svg>

<?xml version="1.0" encoding="UTF-8"?>
<svg width="24px" fill="#44739e" height="24px" viewBox="0 0 24 24" version="1.1" xmlns="http://www.w3.org/2000/svg" xmlns:xlink="http://www.w3.org/1999/xlink">
            <path d="m 11.3,13.467 a 1.2,1.2 0 0 0 0,-2.38 1.2,1.2 0 0 0 0,2.38 z M 17.759,2.455 v 0 c 0,-0.01 -0.008,-0.02 -0.022,-0.03 A 0.843,0.843 0 0 0 17.19,2.1 v 0 A 0.759,0.759 0 0 0 17.063,2.089 L 16.607,2.052 H 16.6 16.571 7.516 A 1.423,1.423 0 0 0 6.1,3.469 v 17.409 a 1.024,1.024 0 0 0 1.028,1.012 h 9.934 a 0.841,0.841 0 0 0 0.843,-0.837 V 2.924 A 0.825,0.825 0 0 0 17.759,2.455 Z M 14.291,4.324 A 0.068,0.068 0 0 0 14.233,4.298 H 14.161 V 4.143 h 0.072 A 0.056,0.056 0 0 0 14.28,4.12 0.112,0.112 0 0 0 14.297,4.055 V 4.041 A 0.088,0.088 0 0 0 14.278,3.98 0.064,0.064 0 0 0 14.227,3.959 0.074,0.074 0 0 0 14.171,3.983 0.138,0.138 0 0 0 14.139,4.053 h -0.165 a 0.269,0.269 0 0 1 0.083,-0.184 0.249,0.249 0 0 1 0.175,-0.066 0.243,0.243 0 0 1 0.175,0.058 0.212,0.212 0 0 1 0.062,0.163 V 4.05 a 0.178,0.178 0 0 1 -0.03,0.1 0.184,0.184 0 0 1 -0.085,0.066 0.145,0.145 0 0 1 0.1,0.064 0.22,0.22 0 0 1 0.034,0.128 V 4.434 A 0.225,0.225 0 0 1 14.422,4.607 0.257,0.257 0 0 1 14.238,4.668 0.317,0.317 0 0 1 14.101,4.64 0.223,0.223 0 0 1 14.001,4.559 0.249,0.249 0 0 1 13.961,4.43 h 0.166 a 0.1,0.1 0 0 0 0.029,0.061 0.085,0.085 0 0 0 0.061,0.022 0.094,0.094 0 0 0 0.07,-0.026 0.1,0.1 0 0 0 0.025,-0.071 V 4.4 A 0.122,0.122 0 0 0 14.291,4.324 Z m -0.11,5.129 A 0.2,0.2 0 0 1 14.025,9.385 0.265,0.265 0 0 1 13.965,9.204 v 0 a 0.267,0.267 0 0 1 0.065,-0.192 0.242,0.242 0 0 1 0.185,-0.068 0.238,0.238 0 0 1 0.183,0.068 0.27,0.27 0 0 1 0.065,0.2 v 0 a 0.424,0.424 0 0 1 -0.017,0.112 q -0.018,0.059 -0.042,0.12 L 14.251,9.808 H 14.082 L 14.238,9.45 A 0.2,0.2 0 0 1 14.181,9.453 Z M 14.4,7.168 A 0.245,0.245 0 0 1 14.216,7.236 0.249,0.249 0 0 1 14.032,7.169 0.264,0.264 0 0 1 13.967,6.979 v 0 a 0.449,0.449 0 0 1 0.016,-0.116 0.772,0.772 0 0 1 0.043,-0.119 l 0.173,-0.367 h 0.181 l -0.168,0.349 a 0.155,0.155 0 0 1 0.031,0 0.205,0.205 0 0 1 0.164,0.066 0.274,0.274 0 0 1 0.058,0.187 v 0 A 0.27,0.27 0 0 1 14.4,7.168 Z m -0.584,4.721 a 0.043,0.043 0 0 1 0.04,-0.045 h 0.039 v -0.132 a 0.223,0.223 0 1 1 0.443,0 v 0.132 h 0.039 a 0.043,0.043 0 0 1 0.04,0.045 v 0.5 a 0.042,0.042 0 0 1 -0.04,0.044 h -0.521 a 0.042,0.042 0 0 1 -0.04,-0.044 z m -2.1,-2.448 a 0.216,0.216 0 0 1 0.036,0.12 V 9.575 A 0.222,0.222 0 0 1 11.718,9.699 0.218,0.218 0 0 1 11.624,9.782 0.327,0.327 0 0 1 11.482,9.811 0.333,0.333 0 0 1 11.34,9.782 0.219,0.219 0 0 1 11.213,9.575 V 9.561 a 0.215,0.215 0 0 1 0.035,-0.12 0.218,0.218 0 0 1 0.093,-0.085 0.2,0.2 0 0 1 -0.08,-0.071 0.165,0.165 0 0 1 -0.031,-0.1 V 9.166 A 0.205,0.205 0 0 1 11.3,9 a 0.3,0.3 0 0 1 0.366,0 0.206,0.206 0 0 1 0.07,0.162 v 0.022 a 0.175,0.175 0 0 1 -0.031,0.1 0.2,0.2 0 0 1 -0.082,0.07 0.22,0.22 0 0 1 0.092,0.087 z M 11.41,7.054 A 0.079,0.079 0 0 0 11.473,7.08 0.078,0.078 0 0 0 11.538,7.052 0.113,0.113 0 0 0 11.561,6.975 V 6.9 A 0.125,0.125 0 0 0 11.541,6.822 0.07,0.07 0 0 0 11.482,6.795 0.1,0.1 0 0 0 11.424,6.812 0.086,0.086 0 0 0 11.39,6.861 H 11.24 V 6.376 h 0.46 v 0.155 h -0.3 v 0.15 a 0.142,0.142 0 0 1 0.05,-0.028 0.2,0.2 0 0 1 0.062,-0.01 0.189,0.189 0 0 1 0.155,0.068 0.306,0.306 0 0 1 0.055,0.193 V 6.975 A 0.267,0.267 0 0 1 11.656,7.168 0.246,0.246 0 0 1 11.471,7.236 0.235,0.235 0 0 1 11.299,7.169 0.278,0.278 0 0 1 11.221,6.981 h 0.161 a 0.119,0.119 0 0 0 0.027,0.073 z m -0.2,-3 a 0.273,0.273 0 0 1 0.077,-0.188 0.246,0.246 0 0 1 0.18,-0.067 0.271,0.271 0 0 1 0.186,0.058 0.207,0.207 0 0 1 0.066,0.164 v 0 a 0.352,0.352 0 0 1 -0.02,0.115 0.389,0.389 0 0 1 -0.057,0.1 L 11.433,4.5 h 0.29 v 0.155 h -0.5 V 4.518 l 0.292,-0.384 a 0.222,0.222 0 0 0 0.031,-0.053 0.142,0.142 0 0 0 0.011,-0.05 v 0 A 0.067,0.067 0 0 0 11.534,3.977 0.1,0.1 0 0 0 11.471,3.959 0.083,0.083 0 0 0 11.407,3.985 0.129,0.129 0 0 0 11.377,4.059 H 11.21 Z m 0.09,6.776 a 1.452,1.452 0 0 1 0,2.894 1.452,1.452 0 0 1 0,-2.894 z M 9,6.426 8.745,6.991 H 8.9 V 6.776 H 9.06 V 6.991 H 9.127 V 7.145 H 9.057 V 7.277 H 8.9 V 7.145 H 8.554 V 7 L 8.816,6.428 Z m 0.065,5.38 v 0.387 A 0.239,0.239 0 0 1 9,12.37 a 0.312,0.312 0 0 1 -0.381,0 0.246,0.246 0 0 1 -0.063,-0.177 v -0.387 a 0.239,0.239 0 0 1 0.064,-0.177 0.316,0.316 0 0 1 0.381,0 0.241,0.241 0 0 1 0.061,0.177 z M 8.543,3.918 8.67,3.861 h 0.137 v 0.85 H 8.646 V 4.049 l -0.1,0.039 z M 8.542,9 H 9.028 V 9.107 L 8.837,9.851 H 8.664 l 0.184,-0.7 H 8.7 V 9.279 H 8.54 Z m 7.636,12.322 H 7.225 A 0.625,0.625 0 0 1 6.6,20.7 v -6.51 h 9.578 z m 1.389,-0.375 a 0.375,0.375 0 0 1 -0.375,0.375 h -0.4 V 2.554 h 0.347 a 0.431,0.431 0 0 1 0.431,0.43 z m -8.76,-9.228 a 0.079,0.079 0 0 0 -0.072,0.034 0.17,0.17 0 0 0 -0.022,0.094 v 0.3 a 0.17,0.17 0 0 0 0.022,0.094 0.079,0.079 0 0 0 0.072,0.034 0.077,0.077 0 0 0 0.072,-0.034 0.17,0.17 0 0 0 0.022,-0.094 v -0.3 A 0.17,0.17 0 0 0 8.879,11.753 0.077,0.077 0 0 0 8.807,11.719 Z m 2.674,-2.272 a 0.119,0.119 0 0 0 -0.079,0.026 0.09,0.09 0 0 0 -0.03,0.071 v 0.008 a 0.1,0.1 0 0 0 0.03,0.076 0.111,0.111 0 0 0 0.079,0.028 0.108,0.108 0 0 0 0.08,-0.029 0.1,0.1 0 0 0 0.03,-0.076 V 9.543 a 0.089,0.089 0 0 0 -0.03,-0.07 0.12,0.12 0 0 0 -0.08,-0.026 z m 2.777,2.265 a 0.145,0.145 0 1 0 -0.287,0 v 0.132 h 0.287 z M 14.214,6.876 a 0.079,0.079 0 0 0 -0.065,0.029 0.122,0.122 0 0 0 -0.023,0.081 v 0 a 0.1,0.1 0 0 0 0.023,0.07 0.085,0.085 0 0 0 0.065,0.024 0.086,0.086 0 0 0 0.066,-0.024 0.1,0.1 0 0 0 0.023,-0.071 v 0 A 0.127,0.127 0 0 0 14.28,6.905 0.079,0.079 0 0 0 14.214,6.876 Z M 14.3,9.2 v 0 A 0.111,0.111 0 0 0 14.277,9.126 0.084,0.084 0 0 0 14.212,9.1 0.081,0.081 0 0 0 14.146,9.127 0.1,0.1 0 0 0 14.123,9.201 v 0 a 0.111,0.111 0 0 0 0.023,0.077 0.093,0.093 0 0 0 0.131,0 A 0.118,0.118 0 0 0 14.3,9.2 Z m -2.819,0.091 a 0.087,0.087 0 0 0 0.067,-0.026 0.1,0.1 0 0 0 0.025,-0.07 V 9.187 a 0.085,0.085 0 0 0 -0.025,-0.065 0.1,0.1 0 0 0 -0.133,0 0.086,0.086 0 0 0 -0.026,0.065 V 9.2 a 0.1,0.1 0 0 0 0.026,0.069 0.086,0.086 0 0 0 0.066,0.022 z"/>

</svg>
